lib/brands/icons/zapier.svg

<svg xmlns="http://www.w3.org/2000/svg" fill="none" aria-hidden="true" viewBox="0 0 48 48"><g id="zapier-Icon"><path id="Vector" fill="#FF4A00" d="M24.0113 6.04578C25.0281 6.04764 26.0282 6.13357 27.0003 6.29609V16.7755L34.4297 9.36518C35.2503 9.94798 36.0179 10.5962 36.7277 11.3041C37.4377 12.0121 38.0895 12.7799 38.6738 13.598L31.244 21.0083H41.7508C41.9138 21.9778 42 22.9716 42 23.9878V24.012C42 25.0282 41.9138 26.0239 41.7508 26.9933H31.2422L38.6738 34.4018C38.0895 35.2199 37.4377 35.9877 36.7298 36.6956H36.7277C36.0179 37.4036 35.2503 38.0537 34.4319 38.6346L27.0003 31.2243V41.7037C26.03 41.8662 25.0299 41.952 24.0131 41.9542H23.9869C22.9697 41.952 21.9736 41.8662 21.0015 41.7037V31.2243L13.5721 38.6346C11.9313 37.4708 10.4968 36.0381 9.32802 34.4018L16.7578 26.9933H6.251C6.08617 26.022 6 25.0226 6 24.0064V23.9543C6.00171 23.6906 6.01898 23.3684 6.04378 23.0351L6.05144 22.9348C6.12487 21.9967 6.251 21.0083 6.251 21.0083H16.7578L9.32802 13.598C9.91046 12.7799 10.5605 12.014 11.2702 11.3079L11.2738 11.3041C11.9821 10.5962 12.7515 9.94798 13.5721 9.36518L21.0015 16.7755V6.29609C21.9736 6.13357 22.9719 6.04764 23.9905 6.04578H24.0113ZM24.0095 19.5121H23.9923C22.6551 19.5121 21.3744 19.7568 20.1906 20.2013C19.7468 21.38 19.5012 22.6577 19.4994 23.9915V24.0083C19.5012 25.342 19.7468 26.6197 20.1923 27.7984C21.3744 28.243 22.6551 28.4877 23.9923 28.4877H24.0095C25.3467 28.4877 26.6274 28.243 27.8094 27.7984C28.2549 26.6179 28.5006 25.342 28.5006 24.0083V23.9915C28.5006 22.6577 28.2549 21.38 27.8094 20.2013C26.6274 19.7568 25.3467 19.5121 24.0095 19.5121Z"/></g></svg>

<svg xmlns="http://www.w3.org/2000/svg" fill="none" aria-hidden="true" viewBox="0 0 48 48"><path fill="#FF4A00" d="M24.011 6.046c1.017.002 2.017.088 2.99.25v10.48l7.429-7.41a18.069 18.069 0 0 1 4.244 4.232l-7.43 7.41h10.507c.163.97.249 1.964.249 2.98v.024c0 1.016-.086 2.012-.25 2.981H31.243l7.432 7.409a18.235 18.235 0 0 1-1.944 2.294h-.002a18.037 18.037 0 0 1-2.296 1.939L27 31.225v10.479c-.97.162-1.97.248-2.987.25h-.026a18.327 18.327 0 0 1-2.985-.25v-10.48l-7.43 7.41a18.057 18.057 0 0 1-4.244-4.232l7.43-7.409H6.25A17.856 17.856 0 0 1 6 24.006v-.052c.002-.263.019-.586.044-.919l.007-.1c.074-.938.2-1.927.2-1.927h10.507l-7.43-7.41a17.764 17.764 0 0 1 1.942-2.29l.004-.004a17.968 17.968 0 0 1 2.298-1.939l7.43 7.41V6.297c.972-.162 1.97-.248 2.989-.25h.02Zm-.002 13.466h-.017c-1.337 0-2.618.245-3.801.69a10.779 10.779 0 0 0-.692 3.79v.016c.002 1.334.248 2.612.693 3.79 1.182.445 2.463.69 3.8.69h.017c1.338 0 2.618-.245 3.8-.69.446-1.18.692-2.456.692-3.79v-.017a10.7 10.7 0 0 0-.692-3.79 10.775 10.775 0 0 0-3.8-.689Z"/></svg>
